X:1
T:Up and Away
T:Up and Away
T:Hubert Platt Main
T:Frances Jane (Fanny) Crosby, 1901
T:Public Domain Courtesy of the Cyber Hymnal™
T:Public Domain Courtesy of the Cyber Hymnal™
C:Hubert Platt Main
Z:Public Domain
Z:Courtesy of the Cyber Hymnal™
%%score ( 1 2 ) ( 3 4 )
L:1/8
Q:1/4=107
M:4/4
K:G
V:1 treble 
V:2 treble 
V:3 bass 
V:4 bass 
V:1
 [B,D]2 [B,D]>[CE] [B,D]2 [CE][DF] | [DG]2 [DA]>[DB] [Gd]2 [Ge]2 | %2
w: 1.~Up, and a- way, while the|blush of the morn- ing|
w: 2.~Up, and a- way, on the|jour- ney be- fore us;|
w: 3.~Up, and a- way, for the|mo- ments are fleet- ing;|
w: 4.~Up, and a- way, to the|fair land of glo- ry;|
 [Gd]2 [GB]>[DA] [DG]2 [CF][B,G] | [^CA]2 [CB]2 A4 | [B,D]2 [B,D]>[CE] [B,D]2 [CE][DF] | %5
w: Tips ev- ery leaf with its|pure, bright ray;|Up, while the spring- time the|
w: Fol- low the Sav- ior in|youth’s bright spring;|Now while the cloud of His|
w: Up, and a- way, like the|tried and true;|Up, and a- way, to each|
w: There may we rest, when our|jour- ney’s past;|Rest with the faith- ful, pro-|
 [DG]2 [DA]>[DB] [Gd]2 [Ge]2 | [Gd]2 [DB]>[Dc] [Gd]2 G[GA] | [GB]2 [Fc]>[FA] G4 || %8
w: earth is a- dorn- ing,|Come, while the Sav- ior is|call- ing to- day.|
w: mer- cy is o’er us,|Haste, let us go, and re-|joice while we sing.|
w: o- ther re- peat- ing,|“God has a work for the|child- ren to do.”|
w: claim- ing the sto- ry,|“Through our Re- deem- er we’re|safe, safe at last.”|
"^Refrain" [FA]2 [DF]>[^CG] [DA]2 [DB][G^c] | [Fd]2 [Ge]>[Fd] [Fd]2 [E^c]2 | %10
w: ||
w: Give to the Sav- ior each|grate- ful e- mo- tion;|
w: ||
w: ||
 [^CG]2 [CE]>[DF] [EG]2 [EG][EG] | [^CB]2 [CA]>[EG] [DG]2 F2 | [B,D]2 [CE]>[DF] [DG]2 [DF][DG] | %13
w: |||
w: Give Him, with glad- ness, our|ear- nest de- vo- tion;|Then will His love, roll- ing|
w: |||
w: |||
 [DA]2 [DB]>[Dc] [Gd]2 [Ge]2 | [Gd]2 [DB]>[Dc] [Gd]2 G[GA] | [GB]2 [Fc]>[FA] G4 |] %16
w: |||
w: on like the o- cean,|Fill ev- ery heart with its|full- ness to- day.|
w: |||
w: |||
V:2
 x8 | x8 | x8 | x4 (D2 =C2) | x8 | x8 | x6 G x | x4 G4 || x8 | x8 | x8 | x6 (D=C) | x8 | x8 | %14
 x6 G x | x4 G4 |] %16
V:3
 [G,,G,]2 [G,,G,]>[G,,G,] [G,,G,]2 [C,G,][C,A,] | [C,G,]2 [D,F,]>G, [G,B,]2 [G,C]2 | %2
 [G,B,]2 [G,D]>[G,C] [G,B,]2 [D,A,][E,G,] | [A,,G,]2 [A,,E,]2 [D,F,]4 | %4
 [G,,G,]2 [G,,G,]>[G,,G,] [G,,G,]2 [C,G,][C,A,] | [B,,G,]2 [D,F,]>G, [G,B,]2 [G,C]2 | %6
 [G,B,]2 G,>[G,A,] [G,B,]2 [B,,D][C,E] | [D,D]2 [D,A,]>[D,C] [G,B,]4 || %8
 [D,D]2 [D,A,]>[E,A,] [F,A,]2 G,[E,A,] | [D,A,]2 [^C,A,]>[D,A,] [A,,A,]2 [A,,A,]2 | %10
 [A,,A,]2 [A,,A,]>[A,,A,] [A,,A,]2 [A,,A,][A,,A,] | [A,,G,]2 [A,,E,]>[A,,A,] [D,A,]2 [D,A,]2 | %12
 [G,,G,]2 [C,G,]>[C,A,] [B,,G,]2 [A,,C][G,,B,] | [D,F,]2 G,>[G,A,] [G,B,]2 [G,C]2 | %14
 [G,B,]2 G,>[G,A,] [G,B,]2 [B,,D][C,E] | [D,D]2 [D,A,]>[D,C] [G,,B,]4 |] %16
V:4
 x8 | x7/2 G,/ x4 | x8 | x8 | x8 | x7/2 G,/ x4 | x2 G,3/2 x9/2 | x8 || x6 G, x | x8 | x8 | x8 | %12
 x8 | x2 G,3/2 x9/2 | x2 G,3/2 x9/2 | x8 |] %16

